X: 15353
T: Glakey Two-Step, The
R: slide
M: 12/8
K: Gmajor
|:B2 c|ded ^c2 d B2 d GAB|cdc B2 c A2 c A2 G|
FAc fed FAc f2 e|1 ded cdc B3:|2 ded cBA G2||
|:D^C=C|B,DG BGD B,DG BGD|E^DE AEA cAc e2 d|
d^cd fed FA=c f2 e|1 ded cdc B3:|2 ded cBA G2||

